X: 700
T: Aggie White's
R: hornpipe
M: 4/4
K: Amajor
c>B|A2 (3cBA E>Ac>e|{e} a2 g>a f>ae>c|d/d/d f>d c>eA>c|B>EG>B e>dc>B|
A2 (3cBA E>Ac>e|a2 a>g a>ec>e|d2 f>d c>eA>c|B>EG>B A2:|
c>e|a>Ac>a g>Bd>f|f>ec>A B>EG>B|A>ce>c d>fb>a|g>af>g e2
f>g|a>Ac>a g>Bd>f|f>ec>A B>EG>B|A>ce>c d>fb>a|(3gfe (3dcB A2
c>e|a>ga>b a>ec>e|d>cB>A G>Be>d|c>ea>g f>db>a|g>af>g e2
f>g|a>Ac>a g>Bd>f|f>ec>A B>EG>B|A>ce>c d>fb>a|(3gfe (3dcB A2||

